X: 1
T: the First No\"el
R: waltz
Z: John Chambers <jc:trillian.mit.edu>
M: 3/4
L: 1/8
K: C
   ED \
| "C"C3 DEF | G4 AB | "F"c2 "(G)"B2 "(F)"A2 | "C"G4 AB \
| "F"c2 "(G)"B2 "(F)"A2 | "C"G2 "(F)"A2 "G7"B2 | "C"c2 G2 "G7"F2 | "C"E4 :|
|: ED \
| "C"C3 DEF | G4 cB | "F"A4 A2 | "C"G4 \
| "Am"c2 "Em"B2 "F"A2 | "G7"G2 A2 B2 | "C"c2 G2 "G7"F2 | "C"E4 :|
